assets/imgs/responsive.svg

<svg enable-background="new 0 0 480 480" height="512" viewBox="0 0 480 480" width="512" xmlns="http://www.w3.org/2000/svg"><g fill="#444"><path d="m480 272v-232c0-22.056-17.944-40-40-40h-352c-22.056 0-40 17.944-40 40v160h-24c-13.232 0-24 10.768-24 24v232c0 13.232 10.768 24 24 24h168c13.232 0 24-10.768 24-24v-48h24v48c0 13.232 10.768 24 24 24h192c13.232 0 24-10.768 24-24v-88c0-13.232-10.768-24-24-24h-98.232l-10.664-32h92.896c22.056 0 40-17.944 40-40zm-280 184c0 4.416-3.592 8-8 8h-168c-4.408 0-8-3.584-8-8v-16h184zm0-32h-184v-168h184zm0-184h-184v-16c0-4.416 3.592-8 8-8h168c4.408 0 8 3.584 8 8zm-8-40h-128v-160c0-13.232 10.768-24 24-24h352c13.232 0 24 10.768 24 24v200h-248v-16c0-13.232-10.768-24-24-24zm48 192h-24v-16h24zm1.472-32h-25.472v-48h114.232l10.664 32h-76.896c-10.416 0-19.216 6.712-22.528 16zm30.528 104h-8c-4.408 0-8-3.584-8-8v-88c0-4.416 3.592-8 8-8h8zm176-104h8c4.408 0 8 3.584 8 8v88c0 4.416-3.592 8-8 8h-8zm-16 0v104h-144v-104zm-216-64v-40h248v16c0 13.232-10.768 24-24 24z"/><path d="m156.117 111.979h135.767v16h-135.767z" transform="matrix(.7071 -.7071 .7071 .7071 -19.2296 193.5331)"/><path d="m252.119 112.001h135.767v16h-135.767z" transform="matrix(.7071 -.7071 .7071 .7071 8.8727 261.423)"/><path d="m34.74 320.001h90.511v16h-90.511z" transform="matrix(.7071 -.7071 .7071 .7071 -208.5012 152.6348)"/><path d="m82.739 335.998h90.511v16h-90.511z" transform="matrix(.7071 -.7071 .7071 .7071 -205.7543 191.2603)"/><path d="m302.055 400.002h67.879v16h-67.879z" transform="matrix(.7071 -.7071 .7071 .7071 -190.0905 357.0855)"/><path d="m350.052 400.005h67.879v16h-67.879z" transform="matrix(.7071 -.7071 .7071 .7071 -176.0347 391.0246)"/><path d="m432 208h16v16h-16z"/><path d="m400 208h16v16h-16z"/><path d="m368 208h16v16h-16z"/></g></svg>

<?xml version="1.0"?>
<svg xmlns="http://www.w3.org/2000/svg" xmlns:xlink="http://www.w3.org/1999/xlink" version="1.1" id="Capa_1" x="0px" y="0px" viewBox="0 0 480 480" style="enable-background:new 0 0 480 480;" xml:space="preserve" width="512px" height="512px"><g><g>
	<g>
		<path d="M480,272V40c0-22.056-17.944-40-40-40H88C65.944,0,48,17.944,48,40v160H24c-13.232,0-24,10.768-24,24v232    c0,13.232,10.768,24,24,24h168c13.232,0,24-10.768,24-24v-48h24v48c0,13.232,10.768,24,24,24h192c13.232,0,24-10.768,24-24v-88    c0-13.232-10.768-24-24-24h-98.232l-10.664-32H440C462.056,312,480,294.056,480,272z M200,456c0,4.416-3.592,8-8,8H24    c-4.408,0-8-3.584-8-8v-16h184V456z M200,424H16V256h184V424z M200,240H16v-16c0-4.416,3.592-8,8-8h168c4.408,0,8,3.584,8,8V240z     M192,200H64V40c0-13.232,10.768-24,24-24h352c13.232,0,24,10.768,24,24v200H216v-16C216,210.768,205.232,200,192,200z M240,392    h-24v-16h24V392z M241.472,360H216v-48h114.232l10.664,32H264C253.584,344,244.784,350.712,241.472,360z M272,464h-8    c-4.408,0-8-3.584-8-8v-88c0-4.416,3.592-8,8-8h8V464z M448,360h8c4.408,0,8,3.584,8,8v88c0,4.416-3.592,8-8,8h-8V360z M432,360    v104H288V360H432z M216,296v-40h248v16c0,13.232-10.768,24-24,24H216z" data-original="#000000" class="active-path" data-old_color="#C31D1D" fill="#444444"/>
	</g>
</g><g>
	<g>
		<rect x="156.117" y="111.979" transform="matrix(0.7071 -0.7071 0.7071 0.7071 -19.2296 193.5331)" width="135.767" height="16" data-original="#000000" class="active-path" data-old_color="#C31D1D" fill="#444444"/>
	</g>
</g><g>
	<g>
		<rect x="252.119" y="112.001" transform="matrix(0.7071 -0.7071 0.7071 0.7071 8.8727 261.423)" width="135.767" height="16" data-original="#000000" class="active-path" data-old_color="#C31D1D" fill="#444444"/>
	</g>
</g><g>
	<g>
		<rect x="34.74" y="320.001" transform="matrix(0.7071 -0.7071 0.7071 0.7071 -208.5012 152.6348)" width="90.511" height="16" data-original="#000000" class="active-path" data-old_color="#C31D1D" fill="#444444"/>
	</g>
</g><g>
	<g>
		<rect x="82.739" y="335.998" transform="matrix(0.7071 -0.7071 0.7071 0.7071 -205.7543 191.2603)" width="90.511" height="16" data-original="#000000" class="active-path" data-old_color="#C31D1D" fill="#444444"/>
	</g>
</g><g>
	<g>
		<rect x="302.055" y="400.002" transform="matrix(0.7071 -0.7071 0.7071 0.7071 -190.0905 357.0855)" width="67.879" height="16" data-original="#000000" class="active-path" data-old_color="#C31D1D" fill="#444444"/>
	</g>
</g><g>
	<g>
		<rect x="350.052" y="400.005" transform="matrix(0.7071 -0.7071 0.7071 0.7071 -176.0347 391.0246)" width="67.879" height="16" data-original="#000000" class="active-path" data-old_color="#C31D1D" fill="#444444"/>
	</g>
</g><g>
	<g>
		<rect x="432" y="208" width="16" height="16" data-original="#000000" class="active-path" data-old_color="#C31D1D" fill="#444444"/>
	</g>
</g><g>
	<g>
		<rect x="400" y="208" width="16" height="16" data-original="#000000" class="active-path" data-old_color="#C31D1D" fill="#444444"/>
	</g>
</g><g>
	<g>
		<rect x="368" y="208" width="16" height="16" data-original="#000000" class="active-path" data-old_color="#C31D1D" fill="#444444"/>
	</g>
</g></g> </svg>
